X:1
T:LoFi Lullaby
M:4/4
L:1/8
K:C
C2 E2 G2 C2| D2 E2 F2 G2| C2 B2 A2 G2| F2 E2 D2 C2| E4 C4| G4 E4| A4 G4| F4 E4| D4 C4| B2 A2 G2 F2| E2 D2 C2 B2| A4 G4| F4 E4| D4 C4| G4 E4| C4 z4|